X: 14
T: Constant Billy
N: CJS(MSS)
O: England
A: Bucknell
P: A(A2B)3.A2
Z: 2005 John Chambers <jc@trillian.mit.edu>
M: 6/8
L: 1/8
K: G
P: A
|:G2d BGB | c2A AFD | BAG E2E | AGF G3 :|
P: B
| Gee e>de | ABc dBG | ABc dBG | ABc d3 \
| G2d BGB | c2A AFD "S"|BAG E2E | DEF G3 ||
P: S Last time - Caper out
| ((2BA) G3 | ((2E>F) G3 | ((2D>E) F3 | G6 ||


